public/svg/icon/dbc.svg

<svg xmlns="http://www.w3.org/2000/svg" xmlns:xlink="http://www.w3.org/1999/xlink" width="32" height="32" viewBox="0 0 32 32"><defs><linearGradient id="dbc-c" x1="50%" x2="50%" y1="0%" y2="100%"><stop offset="0%" stop-color="#FFF" stop-opacity=".5"/><stop offset="100%" stop-opacity=".5"/></linearGradient><circle id="dbc-b" cx="16" cy="15" r="15"/><filter id="dbc-a" width="111.7%" height="111.7%" x="-5.8%" y="-4.2%" filterUnits="objectBoundingBox"><feOffset dy=".5" in="SourceAlpha" result="shadowOffsetOuter1"/><feGaussianBlur in="shadowOffsetOuter1" result="shadowBlurOuter1" stdDeviation=".5"/><feComposite in="shadowBlurOuter1" in2="SourceAlpha" operator="out" result="shadowBlurOuter1"/><feColorMatrix in="shadowBlurOuter1" values="0 0 0 0 0 0 0 0 0 0 0 0 0 0 0 0 0 0 0.199473505 0"/></filter><path id="dbc-e" d="M13.7846762,15.9276313 C13.2343542,16.5022797 12.6836156,17.0765632 12.1341733,17.6520782 C11.8383625,17.9619113 11.5465335,18.2754388 11.2486855,18.5834018 C11.1989593,18.634805 11.1278424,18.6660939 11.0665875,18.706733 C10.9369012,18.6859801 10.8377265,18.6048844 10.819901,18.4877563 C10.7924451,18.3076399 10.7679061,18.1270218 10.745821,17.9461756 C10.7169298,17.7094108 10.6433591,17.6425912 10.4019971,17.6134916 C9.90496644,17.5535593 9.40863028,17.4879256 8.91210891,17.4238882 C8.53402299,17.3750392 8.15607596,17.3250956 7.77808264,17.2756537 C7.55227746,17.246098 7.47004864,17.0835417 7.58894708,16.891384 C7.85989476,16.4534763 8.13366676,16.0173018 8.40688315,15.580808 C8.96345563,14.6916287 9.52127821,13.8031791 10.0761376,12.9129963 C10.1432726,12.8053096 10.2170285,12.7311923 10.3587066,12.7346131 C10.4495935,12.7368025 10.5427492,12.7146813 10.6320619,12.6923777 C10.7382278,12.6659235 10.8205492,12.6984439 10.8950923,12.7682282 C11.0264454,12.8912857 11.1587709,13.0132485 11.2892906,13.1370358 C11.7922014,13.6138494 12.2940935,14.0917576 12.7972821,14.5682975 C13.1224934,14.8762605 13.450066,15.1818518 13.7751847,15.489906 C13.942513,15.6484942 13.9433001,15.7619735 13.7846762,15.9276313 Z M24.8755902,18.2465125 C24.96907,18.3252365 25.0709763,18.3992625 25.0905612,18.5321263 C25.1155169,18.7012962 25.0476411,18.8247186 24.9039721,18.917673 C24.0532557,19.4681478 23.2038819,20.0206294 22.3538136,20.5721532 C21.8064548,20.9272776 21.2584941,21.2815811 20.7113206,21.6369791 C20.6599275,21.6703205 20.6090438,21.7054863 20.5630679,21.7455324 C20.4780148,21.8197409 20.4331964,21.9136989 20.4377338,22.0278167 C20.4459289,22.2326084 20.4585225,22.437309 20.4609301,22.6421007 C20.4637544,22.8769499 20.2904071,23.0236337 20.0545085,22.9968602 C19.9638994,22.9865978 19.8970885,22.9389347 19.8404636,22.8737115 C19.6426236,22.6457952 19.4451077,22.4175596 19.247916,22.1890959 C19.0008128,21.9027523 18.7553764,21.6149948 18.5065138,21.3301108 C18.420581,21.2317286 18.3553906,21.1285118 18.3718734,20.9364454 C18.3822909,20.5755284 18.3945604,20.1581911 18.4062743,19.7408994 C18.4102561,19.6002818 18.4926238,19.5107937 18.6045773,19.4392306 C19.0574377,19.1500136 19.5099741,18.860158 19.9629734,18.5709866 C20.723266,18.0856438 21.4854568,17.6030377 22.2430177,17.1134531 C22.4033546,17.0098714 22.551561,16.978993 22.7283807,17.0692108 C22.8580671,17.1353462 23.0053474,17.1472962 23.1457291,17.1027802 C23.3572275,17.035687 23.5185368,17.0951176 23.6816054,17.2386999 C24.0721924,17.5827409 24.4771323,17.9110919 24.8755902,18.2465125 Z M17.5766428,19.2386807 C17.635305,19.2977921 17.6873925,19.3803017 17.7035049,19.4597098 C17.7414709,19.645938 17.666789,19.7730093 17.4911267,19.8577538 C16.9060334,20.1400837 16.3220513,20.4249221 15.7321428,20.6970808 C15.6255602,20.746249 15.4933274,20.7518591 15.371975,20.7574692 C14.8831858,20.7799553 14.3939798,20.7930455 13.9050516,20.8127493 C13.6164636,20.8244257 13.3280608,20.8419401 13.062021,20.8556689 C12.9816441,20.8556689 12.9237691,20.8545743 12.8659404,20.8559426 C12.7718125,20.8581319 12.6935654,20.8235591 12.6258748,20.7610269 C12.564018,20.7038767 12.4999388,20.6490528 12.4389153,20.5910816 C12.0949062,20.264099 11.7567309,19.9308677 11.4057305,19.611274 C11.2098351,19.4329364 11.2074275,19.194484 11.3941092,19.0025544 C11.8154856,18.5693446 12.231445,18.131072 12.6485618,17.6939397 C13.1000333,17.2208205 13.5509028,16.7471997 14.0006612,16.2725298 C14.0841864,16.1843645 14.1788236,16.1327332 14.3049449,16.1362452 C14.4074994,16.1391187 14.4916265,16.1734635 14.5631601,16.2446161 C15.1625137,16.8412944 15.7618674,17.4380184 16.3621471,18.0337845 C16.7669019,18.435523 17.1751754,18.8338407 17.5766428,19.2386807 Z M20.0551892,11.1900728 C19.861794,10.891688 20.0795893,10.4804169 20.4006799,10.4270525 C21.2590822,10.284428 22.1137804,10.1200929 22.9711641,9.97112858 C23.1596052,9.93838014 23.3097561,10.0253596 23.4137923,10.1808007 C23.5942234,10.4503139 23.7711821,10.7220621 23.9494834,10.992898 C24.3249766,11.5633047 24.7019513,12.1327534 25.0740645,12.7053038 C25.1240222,12.7821577 25.1492094,12.874656 25.1858791,12.9598567 C25.1784247,12.9631863 25.1710167,12.9664246 25.1636087,12.9697086 C25.1637939,13.121592 25.0967515,13.2509894 25.0098001,13.3678438 C24.485545,14.0723001 23.9557339,14.772697 23.4327753,15.4780655 C23.2554925,15.7171565 22.8240227,15.7512732 22.6264605,15.4231959 C21.8613528,14.1527117 21.0880036,12.8870165 20.3176639,11.6195882 C20.2305273,11.4761883 20.1464928,11.3308729 20.0551892,11.1900728 Z M18.5502118,14.7216451 C18.4996522,15.1666224 18.4508057,15.6117366 18.4000145,16.056714 C18.3578352,16.4262057 18.3134798,16.7954694 18.271069,17.1649156 C18.2212502,17.5985359 18.1723111,18.0322018 18.1234645,18.4659134 C18.1132322,18.5564505 18.1119821,18.648584 18.0930454,18.7371598 C18.0839243,18.7798058 18.0509124,18.8354507 18.0146132,18.8494076 C17.9794715,18.8628627 17.9145589,18.8432958 17.8828434,18.8157469 C17.7411653,18.6928263 17.605923,18.5626535 17.4698009,18.433621 C16.9806413,17.9701714 16.4928243,17.5052622 16.0029238,17.0425423 C15.5770563,16.6403933 15.149522,16.2399775 14.7217098,15.8398354 C14.5802633,15.7075646 14.5791984,15.6656484 14.7157371,15.5229783 C15.368984,14.8402783 16.0219069,14.1573047 16.6741352,13.4736924 C17.120421,13.006001 17.5654105,12.5371237 18.0110018,12.0687936 C18.2297694,11.8387792 18.4484907,11.6087192 18.6673508,11.3787503 C18.6858708,11.3593658 18.7018906,11.3316346 18.7248091,11.3237439 C18.7720815,11.3074153 18.8295398,11.2835609 18.8707005,11.2974722 C18.904731,11.3090573 18.9214453,11.3704492 18.9318628,11.3873707 C18.895934,11.7015824 18.8635703,11.9843227 18.8312529,12.2671543 C18.7882865,12.6442174 18.7455516,13.0212806 18.7023536,13.3983437 C18.651794,13.8394441 18.600401,14.280499 18.5502118,14.7216451 Z M22.3559434,15.7412252 C22.4198837,15.8452631 22.4295604,15.9434172 22.3604808,16.0501004 C22.2812615,16.172565 22.2534352,16.3107196 22.267603,16.4543019 C22.2799651,16.5795487 22.2276461,16.6571324 22.1208782,16.7248186 C21.2843759,17.2551334 20.4510682,17.7904198 19.6166956,18.3239731 C19.3547764,18.4915009 19.0929961,18.6593481 18.8301046,18.8253708 C18.7255592,18.891415 18.6186988,18.8860785 18.561935,18.8024742 C18.530312,18.7559514 18.5259598,18.6914123 18.5166535,18.6598498 C18.555777,18.3711801 18.5905021,18.1116556 18.6261531,17.8522679 C18.7079652,17.2582806 18.7901014,16.6642933 18.8723303,16.0703516 C18.9622912,15.4199895 19.0526225,14.7696731 19.1425371,14.119311 C19.2303683,13.4840005 19.3177364,12.8485987 19.4054286,12.2131969 C19.4381164,11.9763865 19.4711284,11.7395761 19.5044181,11.5028113 C19.5070572,11.4840653 19.5075202,11.4616705 19.5181692,11.4480785 C19.544375,11.4147371 19.5726643,11.3656145 19.6063244,11.3601412 C19.6415587,11.3544399 19.6977206,11.3823536 19.720778,11.4130495 C19.7824034,11.4951031 19.8316203,11.5863243 19.8850968,11.6742616 C20.5367695,12.7462484 21.1883959,13.8182352 21.8398371,14.8903588 C22.0120732,15.1738745 22.1823646,15.4585305 22.3559434,15.7412252 Z M18.3033818,10.8377717 C18.334125,10.857886 18.3944076,10.8794598 18.4256138,10.9217865 C18.4745992,10.988378 18.4316791,11.0503629 18.3811195,11.1034081 C18.1542031,11.3414956 17.9281665,11.5804041 17.700926,11.8182179 C17.0404563,12.5096752 16.3789679,13.2002202 15.7190075,13.8921335 C15.3045298,14.3265748 14.8931541,14.763844 14.4782134,15.1979204 C14.3290811,15.3539088 14.208238,15.3535439 14.0529478,15.2062216 C13.5696682,14.7477891 13.0872684,14.28849 12.6031091,13.8310153 C12.1329324,13.3867677 11.6611353,12.9441165 11.189477,12.5013284 C11.1256293,12.4414417 11.0759957,12.3757167 11.082987,12.284085 C11.0925248,12.159203 11.1648454,12.088461 11.307681,12.063147 C11.5693224,12.016761 11.8311489,11.9714697 12.0928829,11.9257678 C12.9312836,11.7793577 13.7697306,11.6333124 14.6080387,11.4864006 C15.5980256,11.3128977 16.5879199,11.1385739 17.5779068,10.9646605 C17.8092217,10.924067 18.0405829,10.8837472 18.3033818,10.8377717 Z M11.5643358,11.4701039 C12.0297899,11.1514224 12.4963551,10.8342916 12.9626426,10.5167048 C14.4661893,9.49270038 15.969736,8.46883283 17.4730975,7.444646 C17.6222761,7.3430255 17.7177468,7.36386956 17.7934936,7.52610659 C18.1043982,8.19202188 18.4130341,8.8589862 18.7223645,9.52563126 C18.762414,9.61197219 18.8012134,9.69890606 18.841587,9.78511016 C18.8747379,9.85594348 18.853162,9.91323044 18.810566,9.97530651 C18.7572284,10.0530726 18.7088912,10.1363577 18.6734717,10.2232003 C18.6395338,10.3063941 18.5900391,10.3511838 18.4996614,10.3671931 C17.8360433,10.4849141 17.1730271,10.606056 16.5096868,10.725419 C15.7249941,10.8666296 14.9402089,11.0069279 14.1555162,11.147956 C13.2987807,11.3019375 12.4421841,11.4565119 11.585356,11.6096724 C11.5500754,11.6159667 11.512665,11.6104478 11.4762732,11.6104478 C11.4688652,11.5965366 11.4615035,11.5825797 11.4540955,11.5686685 C11.4906725,11.5356008 11.5239159,11.4977439 11.5643358,11.4701039 Z M6.87464896,12.9962586 C6.58018086,12.9903748 6.4050279,12.70394 6.54605775,12.4406298 C6.66472469,12.2190077 6.79728163,12.0046833 6.92456038,11.7875767 C7.292877,11.1593358 7.66258262,10.5318703 8.02927874,9.9027628 C8.09095036,9.79699173 8.17280879,9.71895194 8.27934512,9.65765124 C9.25507165,9.09650359 10.2291777,8.53266491 11.2048579,7.97147165 C11.2670851,7.93571291 11.3362573,7.90287325 11.4061704,7.89069521 C11.5509042,7.86551814 11.6723954,7.91860892 11.7604581,8.03541776 C11.8521321,8.15706132 11.8558824,8.2920232 11.7942108,8.42402038 C11.647486,8.73800399 11.4948812,9.04929658 11.3431097,9.36095406 C11.0646151,9.93295704 10.7833889,10.5036829 10.507163,11.076735 C10.4435467,11.2087321 10.3567342,11.2934767 10.2067685,11.3327018 C9.94026557,11.4023949 9.76946482,11.5811886 9.69496809,11.8425375 C9.65723358,11.9749452 9.57894025,12.054855 9.44619811,12.1016515 C8.64386514,12.3843463 7.84347678,12.6722862 7.04193091,12.9570334 C6.9883618,12.9760987 6.93053308,12.983442 6.87464896,12.9962586 Z M11.0273622,11.1695161 C11.0296772,11.1291051 11.044308,11.0875538 11.0613927,11.0500619 C11.4098929,10.2840768 11.759458,9.51859353 12.1089768,8.75311023 C12.3272351,8.27511077 12.5475769,7.79797791 12.7630108,7.31874696 C12.8125981,7.20855167 12.8856133,7.15354524 13.0096047,7.14966833 C13.3368532,7.13931472 13.6639165,7.12161779 13.9911187,7.10889243 C14.6342259,7.0838978 15.2773795,7.0611837 15.9204404,7.03564175 C16.1474956,7.02661084 16.3742268,7.01133128 16.6012358,7.00043033 C16.763471,6.99263092 16.8741281,7.09142355 16.8748689,7.25005734 C16.882138,7.34652384 16.8199571,7.410698 16.740321,7.46492905 C16.5340082,7.60522736 16.3279268,7.74579934 16.1216602,7.88609766 C14.8904502,8.72369137 13.659055,9.56110265 12.4279376,10.3988332 C12.0344801,10.666522 11.6415319,10.9349862 11.2482132,11.2028575 C11.2196924,11.2222876 11.1914494,11.2434966 11.160058,11.2570429 C11.0897283,11.2874196 11.0230563,11.2448649 11.0273622,11.1695161 Z M9.66404431,12.821433 C9.50065156,13.0837398 9.3358698,13.3452255 9.17201405,13.6072586 C8.55895555,14.587568 7.94626744,15.5681055 7.33242184,16.5478675 C7.30450293,16.5923835 7.27311152,16.6399098 7.23139521,16.6699216 C7.12587747,16.7459089 6.98512543,16.6934567 6.93461211,16.5594983 C6.85409638,16.3458124 6.77885886,16.130211 6.70223233,15.9150656 C6.47878846,15.2876913 6.25552978,14.6602258 6.03296561,14.0325322 C6.01662171,13.9863742 6.006482,13.938027 6,13.9145375 C6.0013427,13.7875119 6.04305901,13.733965 6.16246675,13.6953328 C6.51786567,13.580394 6.87391279,13.467234 7.22991361,13.3540284 C7.90154163,13.140525 8.57330855,12.9274321 9.24507547,12.7143392 C9.3331844,12.6864255 9.42157113,12.659424 9.50986526,12.6321032 C9.57255548,12.6127187 9.635755,12.5848506 9.68765732,12.6545437 C9.73525373,12.7184442 9.69599132,12.770121 9.66404431,12.821433 Z M25.7816491,15.4297456 C25.8492935,15.8150643 25.91666,16.2003829 25.9837024,16.5858384 C25.9902307,16.6231479 25.9936569,16.6610047 26,16.7098993 C25.9891195,16.7593869 25.9787946,16.819228 25.9628211,16.877564 C25.8752678,17.1965192 25.7860476,17.5150639 25.6980776,17.8339278 C25.6222382,18.1091424 25.4037484,18.1733166 25.1835918,17.9875901 C24.7325834,17.6071518 24.2804637,17.2280361 23.8274644,16.849924 C23.7243079,16.7638111 23.6810637,16.6647904 23.7048619,16.5287795 C23.7285675,16.3932703 23.7242616,16.2547508 23.6593027,16.1271322 C23.5966125,16.0041203 23.6173086,15.8947004 23.6978706,15.7866032 C24.0676226,15.290542 24.4354762,14.7930667 24.803978,14.2961389 C24.8790766,14.1948833 24.9549161,14.0942206 25.0293202,13.9925089 C25.1039558,13.8904323 25.2033619,13.8398045 25.3294832,13.8679006 C25.4605122,13.8970914 25.5285269,13.9883127 25.5509825,14.1167979 C25.6272849,14.5545687 25.7048837,14.992066 25.7816491,15.4297456 Z M18.2178379,7.48587801 C18.2114485,7.47205799 18.2049202,7.45832919 18.1985771,7.44446356 C18.1713064,7.38443996 18.1602869,7.3138347 18.2206159,7.28021966 C18.2661751,7.25481453 18.3397921,7.25289889 18.3915092,7.26922749 C18.4785533,7.29677632 18.5583282,7.34671996 18.6408348,7.38786076 C19.7616193,7.94732082 20.88245,8.50673526 22.0030956,9.0665146 C22.2024635,9.16608261 22.4006739,9.26783994 22.6001806,9.3671343 C22.6665748,9.4001564 22.7203755,9.43924471 22.7061151,9.52307706 C22.6919935,9.60627086 22.6293959,9.62424145 22.5555937,9.63737731 C21.7482603,9.78095959 20.94139,9.92673119 20.134427,10.0720011 C20.115444,10.0754219 20.0966925,10.0797549 20.0553929,10.0883297 C20.0319651,10.0729589 19.987656,10.0555812 19.9603389,10.0239275 C19.8028263,9.84139369 19.6100793,9.73005812 19.3630224,9.72075356 C19.2734782,9.71737837 19.2272708,9.66364904 19.192731,9.5888476 C19.0506825,9.28134069 18.9056246,8.97515649 18.7631594,8.66783203 C18.5806448,8.27416663 18.3995654,7.87986269 18.2178379,7.48587801 Z"/><filter id="dbc-d" width="117.5%" height="121.9%" x="-8.8%" y="-7.8%" filterUnits="objectBoundingBox"><feOffset dy=".5" in="SourceAlpha" result="shadowOffsetOuter1"/><feGaussianBlur in="shadowOffsetOuter1" result="shadowBlurOuter1" stdDeviation=".5"/><feColorMatrix in="shadowBlurOuter1" values="0 0 0 0 0 0 0 0 0 0 0 0 0 0 0 0 0 0 0.204257246 0"/></filter></defs><g fill="none" fill-rule="evenodd"><use fill="#000" filter="url(#dbc-a)" xlink:href="#dbc-b"/><use fill="#5BC1D4" xlink:href="#dbc-b"/><use fill="url(#dbc-c)" style="mix-blend-mode:soft-light" xlink:href="#dbc-b"/><circle cx="16" cy="15" r="14.5" stroke="#000" stroke-opacity=".097"/><g><use fill="#000" filter="url(#dbc-d)" xlink:href="#dbc-e"/><use fill="#FFF" xlink:href="#dbc-e"/></g></g></svg>

<svg xmlns="http://www.w3.org/2000/svg" xmlns:xlink="http://www.w3.org/1999/xlink" width="32" height="32" viewBox="0 0 32 32"><defs><filter id="a" width="111.7%" height="111.7%" x="-5.8%" y="-4.2%" filterUnits="objectBoundingBox"><feOffset dy=".5" in="SourceAlpha" result="shadowOffsetOuter1"/><feGaussianBlur in="shadowOffsetOuter1" result="shadowBlurOuter1" stdDeviation=".5"/><feComposite in="shadowBlurOuter1" in2="SourceAlpha" operator="out" result="shadowBlurOuter1"/><feColorMatrix in="shadowBlurOuter1" values="0 0 0 0 0 0 0 0 0 0 0 0 0 0 0 0 0 0 0.199473505 0"/></filter><filter id="d" width="117.5%" height="121.9%" x="-8.8%" y="-7.8%" filterUnits="objectBoundingBox"><feOffset dy=".5" in="SourceAlpha" result="shadowOffsetOuter1"/><feGaussianBlur in="shadowOffsetOuter1" result="shadowBlurOuter1" stdDeviation=".5"/><feColorMatrix in="shadowBlurOuter1" values="0 0 0 0 0 0 0 0 0 0 0 0 0 0 0 0 0 0 0.204257246 0"/></filter><linearGradient id="c" x1="50%" x2="50%" y1="0%" y2="100%"><stop offset="0%" stop-color="#FFF" stop-opacity=".5"/><stop offset="100%" stop-opacity=".5"/></linearGradient><circle id="b" cx="16" cy="15" r="15"/><path id="e" d="M13.785 15.928l-1.65 1.724c-.297.31-.588.623-.886.931-.05.052-.121.083-.182.124-.13-.021-.23-.102-.247-.22a16.66 16.66 0 01-.074-.54c-.03-.238-.103-.304-.344-.334-.497-.06-.993-.125-1.49-.19l-1.134-.147c-.226-.03-.308-.192-.19-.385.272-.438.546-.874.819-1.31l1.67-2.668c.066-.108.14-.182.282-.178.09.002.184-.02.273-.043.106-.026.189.006.263.076.131.123.264.245.394.369l1.508 1.431c.325.308.653.614.978.922.168.158.168.272.01.438zm11.09 2.319c.094.078.196.152.216.285.025.17-.043.293-.187.386-.85.55-1.7 1.103-2.55 1.654l-1.643 1.065a1.309 1.309 0 00-.148.109.343.343 0 00-.125.282c.008.205.02.41.023.614.003.235-.17.382-.406.355a.327.327 0 01-.215-.123 322.09 322.09 0 01-.592-.685c-.247-.286-.493-.574-.741-.859a.473.473 0 01-.135-.394l.034-1.195c.004-.14.087-.23.199-.302l1.358-.868c.76-.485 1.522-.968 2.28-1.458.16-.103.309-.134.485-.044.13.066.277.078.418.034.211-.067.373-.008.536.136.39.344.795.672 1.194 1.008zm-7.298.992a.47.47 0 01.127.22c.037.187-.037.314-.213.399-.585.282-1.169.567-1.759.84-.106.048-.239.054-.36.06-.489.022-.978.035-1.467.055-.289.011-.577.029-.843.043h-.196a.33.33 0 01-.24-.095c-.062-.057-.126-.112-.187-.17-.344-.327-.682-.66-1.033-.98-.196-.178-.199-.417-.012-.608.421-.434.837-.872 1.255-1.31.451-.472.902-.946 1.352-1.42a.386.386 0 01.562-.028l1.8 1.789c.404.402.812.8 1.214 1.205zm2.478-8.049c-.193-.298.025-.71.346-.763.858-.143 1.713-.307 2.57-.456.189-.033.339.054.443.21.18.27.357.541.535.812.376.57.753 1.14 1.125 1.712.05.077.075.17.112.255l-.022.01a.664.664 0 01-.154.398c-.524.704-1.054 1.405-1.577 2.11a.49.49 0 01-.807-.055c-.765-1.27-1.538-2.536-2.308-3.803-.087-.144-.172-.29-.263-.43zm-1.505 3.532l-.15 1.335c-.042.37-.087.738-.129 1.108l-.148 1.3c-.01.091-.011.184-.03.272-.01.043-.042.098-.078.112-.036.014-.1-.006-.132-.033-.142-.123-.277-.253-.413-.382-.49-.464-.977-.929-1.467-1.391-.426-.403-.853-.803-1.281-1.203-.142-.132-.143-.174-.006-.317l1.958-2.05 1.337-1.404.656-.69c.019-.02.035-.047.058-.055.047-.017.105-.04.146-.027.034.012.05.073.06.09l-.1.88-.129 1.131-.152 1.324zm3.806 1.02c.064.103.074.201.004.308a.617.617 0 00-.092.404c.012.126-.04.203-.147.27-.837.531-1.67 1.066-2.504 1.6-.262.168-.524.335-.787.501-.104.066-.211.061-.268-.023-.032-.046-.036-.11-.045-.142l.11-.808.245-1.782.27-1.95.263-1.907.1-.71c.002-.019.003-.041.013-.055.026-.033.055-.082.088-.088.036-.006.092.022.115.053.061.082.11.173.164.261l1.955 3.216c.172.284.342.569.516.851zm-4.053-4.904c.031.02.091.041.123.084.049.066.006.128-.045.181l-.68.715-1.982 2.074c-.414.435-.826.872-1.24 1.306-.15.156-.27.156-.426.008-.483-.458-.966-.918-1.45-1.375-.47-.444-.942-.887-1.414-1.33-.063-.06-.113-.125-.106-.217.01-.125.082-.196.225-.22.261-.047.523-.093.785-.138l2.515-.44 2.97-.521.725-.127zm-6.739.632c.466-.319.932-.636 1.399-.953l4.51-3.072c.15-.102.245-.081.32.081.311.666.62 1.333.93 2 .04.086.078.173.119.26.033.07.011.127-.031.19a1.336 1.336 0 00-.138.247c-.033.083-.083.128-.173.144-.664.118-1.327.24-1.99.358l-2.354.423-2.57.462c-.036.006-.073 0-.11 0l-.022-.041c.037-.033.07-.071.11-.099zm-4.69 1.526c-.294-.006-.469-.292-.328-.555.119-.222.251-.436.379-.653.368-.629.738-1.256 1.104-1.885a.659.659 0 01.25-.245c.976-.561 1.95-1.125 2.926-1.687a.638.638 0 01.201-.08.348.348 0 01.354.144.359.359 0 01.034.389c-.147.314-.3.625-.45.937-.28.572-.56 1.143-.837 1.716a.434.434 0 01-.3.256.692.692 0 00-.512.51.36.36 0 01-.249.259c-.802.282-1.603.57-2.404.855-.054.02-.111.026-.167.04zm4.153-1.826a.346.346 0 01.034-.12l1.048-2.297c.218-.478.439-.955.654-1.434.05-.11.123-.165.247-.17.327-.01.654-.027.981-.04l1.93-.073c.226-.01.453-.025.68-.036.162-.007.273.091.274.25.007.097-.055.16-.135.215l-.618.421-3.694 2.513-1.18.804a.533.533 0 01-.088.054c-.07.03-.137-.012-.133-.087zm-1.363 1.65c-.163.263-.328.524-.492.786-.613.98-1.226 1.961-1.84 2.94a.425.425 0 01-.1.123c-.106.076-.247.023-.297-.11-.08-.214-.156-.43-.233-.645l-.669-1.882c-.016-.047-.027-.095-.033-.118.001-.127.043-.181.162-.22.356-.115.712-.228 1.068-.341l2.015-.64.265-.082c.063-.02.126-.047.178.023.047.063.008.115-.024.166zm16.118 2.609l.202 1.156c.006.037.01.075.016.124-.01.05-.021.11-.037.168l-.265.956c-.076.275-.294.34-.514.154-.451-.38-.904-.76-1.357-1.138-.103-.086-.146-.185-.122-.321a.629.629 0 00-.046-.402c-.062-.123-.042-.232.039-.34.37-.496.737-.994 1.106-1.49l.225-.304c.075-.103.174-.153.3-.125.132.03.2.12.222.249l.23 1.313zm-7.564-7.944l-.02-.042c-.027-.06-.038-.13.023-.164a.24.24 0 01.17-.01c.088.027.167.077.25.118l3.362 1.679.597.3c.067.033.12.072.106.156-.014.083-.077.101-.15.114-.808.144-1.615.29-2.422.435l-.079.016c-.023-.015-.067-.032-.095-.064a.804.804 0 00-.597-.303c-.09-.004-.136-.057-.17-.132-.142-.308-.287-.614-.43-.921l-.545-1.182z"/></defs><g fill="none" fill-rule="evenodd"><use fill="#000" filter="url(#a)" xlink:href="#b"/><use fill="#5BC1D4" xlink:href="#b"/><use fill="url(#c)" style="mix-blend-mode:soft-light" xlink:href="#b"/><circle cx="16" cy="15" r="14.5" stroke="#000" stroke-opacity=".097"/><use fill="#000" filter="url(#d)" xlink:href="#e"/><use fill="#FFF" xlink:href="#e"/></g></svg>
